X:6632
T:Gweebarra Bridge Reel
T:Killarney Boys of Pleasure
R:Reel
S:
H:
N:
D:
Z:Adrian Scahill
M:2/2
L:1/8
K:C
D3C DEFG|A2GE CDEG|A3c dced|cAGE EDDC:||\
Addc d2Ad|cAGE CDEG|ceed e3d|cAGE EDDG:||\
